X: 1245
T: An Dro Nevez
R: reel
M: 4/4
K: Eminor
B/BB/|c>B AF GE E2|B2 A/B/c/A/ B2 FG|AB/A/ GF GE E2|B2 A/B/c/A/ BA FG|
AB/A/ GF GE E2|B>B BE A>A AA/B/|A>F GF E>E E2|B>B BE A>A AA/B/|
AF GF E>F GB|A>F GA E>F GB|A>F GF E>F GB|A2 G/E/F/D/ E2 B/B/B/B/|

